X:892
T:Reel 892
M:4/4
K:Dmix
L:1/8
AG|FDDC A,CDE|FDAF FDDE|FEFE A,CDC|CDEC GCEG|FD (3DCD ADEC|A,DDF EDCE|FEDC  (3A,=B,C |E|FDEC D2|AG|FD (3DCD ADFD|FDAD GBAG|FD (3DCD AD (3DCD |ECCD EFGE|FD (3DDD A,D (3DED |FDAD dABG|GcGE FDEC|A,DCE D2|
